static/img/pages/index/integrations/grafana.svg

<svg width="84" height="91" viewBox="0 0 84 91" fill="none" xmlns="http://www.w3.org/2000/svg">
<path d="M55.4356 31.6925C63.2778 31.8668 69.481 35.1821 74.0769 41.4817C76.3141 44.5477 77.5866 48.0171 78.151 51.7694C78.3487 53.0825 78.3594 54.3888 78.2966 55.6922C78.261 56.4363 78.3275 57.1911 78.1838 57.9284C78.1346 58.1797 78.2532 58.3231 78.4182 58.4618C81.048 60.6643 82.4257 63.5609 83.1106 66.8493C83.1897 67.2276 83.0961 67.4682 82.7903 67.7079C80.2608 69.692 77.4419 70.85 74.1773 70.7451C73.9033 70.7364 73.8251 70.9203 73.7084 71.0868C72.2382 73.196 70.6618 75.2166 68.7343 76.9378C67.8275 77.7474 66.8357 78.451 65.8749 79.1923C65.7176 79.3136 65.598 79.4175 65.5951 79.6505C65.5497 83.0968 64.2368 86.0925 62.2909 88.8611C61.8298 89.5176 61.304 90.1241 60.785 90.7354C60.5968 90.9558 60.4 91.0396 60.1174 90.9828C56.1012 90.1761 52.6311 88.4433 50.118 85.0991C49.9347 84.8546 49.7369 84.8064 49.4649 84.8132C46.5032 84.8892 43.5637 84.7015 40.6589 84.0758C39.4192 83.8091 38.2008 83.4655 36.9949 83.0814C36.6476 82.9707 36.4045 83.0313 36.116 83.2373C32.9286 85.513 29.3668 86.8116 25.4818 87.2554C24.4438 87.3738 23.4029 87.4142 22.3581 87.4268C21.9674 87.4316 21.7947 87.292 21.6625 86.9406C20.7373 84.4811 20.3293 81.9406 20.3833 79.3165C20.4219 77.4451 20.7412 75.6267 21.3191 73.8525C21.4204 73.5416 21.4011 73.3298 21.1686 73.0853C19.1552 70.9578 17.4322 68.6167 16.0054 66.0599C15.9243 65.9145 15.8414 65.8183 15.6494 65.7904C9.87453 64.9596 5.11555 62.2084 1.07432 58.1036C1.06274 58.0921 1.05116 58.0815 1.04055 58.069C-0.290767 56.5798 -0.221307 57.2661 0.557226 55.4439C2.59955 50.6624 5.77542 46.8263 10.3685 44.2753C11.0882 43.8758 11.4306 43.4416 11.5194 42.6272C11.8397 39.6912 12.5526 36.8408 13.581 34.0712C13.6611 33.8566 13.6099 33.7237 13.4884 33.5524C11.011 30.0676 9.65265 26.1641 9.11144 21.9487C8.89052 20.2246 8.8992 18.4976 8.92717 16.7667C8.93393 16.3615 9.09118 16.1766 9.4433 16.0284C12.0095 14.9502 14.6769 14.3226 17.4563 14.1349C20.5762 13.9241 23.6084 14.3226 26.5315 15.4219C27.0351 15.6116 27.3447 15.5336 27.7682 15.2592C30.619 13.4139 33.6367 11.9064 36.9042 10.9302C37.1135 10.8677 37.2698 10.8147 37.3364 10.5615C37.948 8.23964 39.1742 6.2412 40.6724 4.39869C42.0278 2.73236 43.6409 1.3423 45.4179 0.136106C45.689 -0.0477587 45.8848 -0.0371696 46.1472 0.118779C49.7794 2.26644 52.4768 5.20443 53.8833 9.22828C53.9885 9.52959 54.1399 9.66532 54.4429 9.70768C57.365 10.1197 60.1724 10.9437 62.8861 12.0902C63.108 12.1836 63.2682 12.1538 63.4611 12.0267C66.0659 10.3132 68.962 9.73463 72.0356 9.8386C72.2893 9.84726 72.407 9.96663 72.5102 10.163C73.9708 12.9431 74.5825 15.8667 73.967 18.9837C73.9014 19.3158 73.9621 19.518 74.1821 19.7423C76.2997 21.9082 78.1433 24.2802 79.6347 26.9226C81.8333 30.8194 83.2495 34.9646 83.7454 39.4216C83.8892 40.7144 83.8785 42.013 83.9933 43.3049C84.0416 43.8478 83.8245 44.1674 83.4348 44.2252C83.0633 44.281 82.717 44.0134 82.5829 43.535C82.0668 41.7011 81.5217 39.8741 80.7297 38.1374C79.163 34.7047 77.1544 31.5674 74.5506 28.8046C71.041 25.0801 66.8975 22.3549 62.0671 20.6683C59.5685 19.7962 56.984 19.3495 54.3493 19.1474C53.0006 19.0444 51.65 19.0405 50.3052 19.1031C48.8687 19.1695 47.4409 19.3688 46.0228 19.6451C42.4841 20.3353 39.1086 21.4722 36.033 23.3618C33.6424 24.8308 31.6898 26.7985 30.0296 29.0559C26.8161 33.4224 24.9783 38.3386 24.1872 43.6659C23.6952 46.9726 23.6682 50.2802 24.4824 53.5436C25.6786 58.3376 28.0876 62.4442 31.63 65.9011C35.6703 69.8441 40.547 72.0244 46.0893 72.8504C52.7305 73.841 58.3963 71.9032 63.1013 67.1756C65.899 64.3637 67.5679 60.9454 68.167 57.0284C68.8202 52.7562 68.1506 48.7371 65.4928 45.235C62.6151 41.4422 58.7523 39.3186 53.9547 39.2493C47.9918 39.1636 43.4026 42.9892 42.1475 48.8132C40.8817 54.6834 44.9674 59.4379 49.6549 60.4246C51.6645 60.8481 53.5688 60.6373 55.4221 59.7921C55.5812 59.7199 55.7453 59.6439 55.915 59.6102C56.3434 59.5255 56.818 59.7507 56.9656 60.1098C57.1373 60.5276 57.0553 60.9117 56.6974 61.1889C55.2272 62.3239 53.563 63.0074 51.7079 63.1209C49.9916 63.2259 48.2773 63.2037 46.617 62.6261C41.3844 60.8068 38.1294 57.2007 37.2245 51.7569C36.3456 46.472 37.8872 41.7724 41.4297 37.7524C44.5844 34.1723 48.5986 32.2278 53.318 31.7022C54.0145 31.6252 54.7294 31.6925 55.4356 31.6925Z" fill="white"/>
</svg>

<svg width="84" height="91" fill="none" xmlns="http://www.w3.org/2000/svg"><path d="M55.436 31.692c7.842.175 14.045 3.49 18.64 9.79 2.238 3.066 3.51 6.535 4.075 10.287.198 1.314.208 2.62.146 3.923-.036.744.03 1.5-.113 2.236-.05.252.07.395.234.534 2.63 2.202 4.008 5.099 4.693 8.387.079.379-.015.62-.32.859-2.53 1.984-5.35 3.142-8.614 3.037-.274-.009-.352.175-.469.342-1.47 2.109-3.046 4.13-4.974 5.85-.906.81-1.898 1.514-2.86 2.255-.156.122-.276.226-.279.459-.045 3.446-1.358 6.442-3.304 9.21-.461.657-.987 1.263-1.506 1.874-.188.22-.385.305-.668.248-4.016-.807-7.486-2.54-9.999-5.884-.183-.244-.381-.293-.653-.286-2.962.076-5.901-.112-8.806-.737a39.355 39.355 0 01-3.664-.995c-.347-.11-.59-.05-.879.156-3.187 2.276-6.75 3.575-10.634 4.018a30.792 30.792 0 01-3.124.172c-.39.005-.563-.135-.695-.486-.926-2.46-1.334-5-1.28-7.624.039-1.872.358-3.69.936-5.464.101-.311.082-.523-.15-.768a34.994 34.994 0 01-5.164-7.025c-.08-.145-.164-.242-.356-.27-5.774-.83-10.533-3.582-14.575-7.686l-.033-.035c-1.332-1.49-1.262-.803-.484-2.625 2.043-4.782 5.218-8.618 9.811-11.169.72-.4 1.063-.833 1.151-1.648.32-2.936 1.034-5.786 2.062-8.556.08-.214.029-.347-.093-.519-2.477-3.484-3.835-7.388-4.377-11.603-.22-1.724-.212-3.451-.184-5.182.007-.405.164-.59.516-.739a24.85 24.85 0 018.013-1.893c3.12-.21 6.152.188 9.076 1.287.503.19.813.112 1.236-.163 2.851-1.845 5.869-3.353 9.136-4.329.21-.062.366-.115.432-.368.612-2.322 1.838-4.32 3.336-6.163 1.356-1.667 2.969-3.057 4.746-4.263.271-.184.467-.173.73-.017 3.631 2.147 6.329 5.085 7.735 9.11.105.3.257.436.56.479 2.922.412 5.73 1.236 8.443 2.382.222.094.382.064.575-.063 2.605-1.714 5.501-2.292 8.575-2.188.253.008.371.128.474.324 1.46 2.78 2.072 5.704 1.457 8.82-.066.333-.005.535.215.76 2.118 2.165 3.961 4.537 5.453 7.18 2.198 3.896 3.614 8.042 4.11 12.499.144 1.292.133 2.591.248 3.883.049.543-.168.862-.558.92-.372.056-.718-.212-.852-.69-.516-1.834-1.061-3.66-1.853-5.398-1.567-3.432-3.576-6.57-6.18-9.332-3.509-3.725-7.653-6.45-12.483-8.137-2.498-.872-5.083-1.319-7.718-1.52a32.966 32.966 0 00-4.044-.045c-1.436.066-2.864.266-4.282.542-3.539.69-6.914 1.827-9.99 3.717-2.39 1.469-4.343 3.437-6.003 5.694-3.214 4.366-5.052 9.283-5.843 14.61-.492 3.307-.519 6.614.295 9.878 1.197 4.794 3.606 8.9 7.148 12.357 4.04 3.943 8.917 6.123 14.46 6.95 6.64.99 12.306-.948 17.011-5.675 2.798-2.812 4.467-6.23 5.066-10.148.653-4.272-.016-8.29-2.674-11.793-2.878-3.793-6.74-5.916-11.538-5.986-5.963-.085-10.552 3.74-11.807 9.564-1.266 5.87 2.82 10.625 7.507 11.612 2.01.423 3.914.212 5.767-.633.16-.072.323-.148.493-.182.428-.084.903.14 1.05.5.172.418.09.802-.268 1.079-1.47 1.135-3.134 1.818-4.99 1.932-1.715.105-3.43.083-5.09-.495-5.233-1.82-8.488-5.425-9.392-10.87-.88-5.284.662-9.984 4.205-14.004 3.154-3.58 7.169-5.524 11.888-6.05.697-.077 1.411-.01 2.118-.01z" fill="#fff"/></svg>
